svg/furkot/mapbox-maki/star-stroke.svg

<svg viewBox="0 0 512 512" xmlns="http://www.w3.org/2000/svg"><path d="m256.172 94.984 37.782 94.632 8.828 22.246h105.931l-70.621 61.793-17.656 15.537 8.122 22.244 35.311 110.522-87.571-62.499-20.126-14.124-20.127 14.124-88.982 62.499 35.31-110.522 7.415-22.244-17.654-15.537-70.621-61.793h105.931l8.828-22.246zm0-94.984-70.62 176.552h-176.552l141.241 123.585-70.621 211.863 176.552-123.586 176.551 123.586-70.621-211.863 141.242-123.585h-176.551z"/></svg>

<svg viewBox="0 0 512 512" xmlns="http://www.w3.org/2000/svg"><path d="M 256.172 94.984 L 293.954 189.616 L 302.782 211.862 L 408.713 211.862 L 338.092 273.655 L 320.436 289.192 L 328.558 311.436 L 363.869 421.958 L 276.298 359.459 L 256.172 345.335 L 236.045 359.459 L 147.063 421.958 L 182.373 311.436 L 189.788 289.192 L 172.134 273.655 L 101.513 211.862 L 207.444 211.862 L 216.272 189.616 L 256.172 94.984 M 256.172 0 L 185.552 176.552 L 9 176.552 L 150.241 300.137 L 79.62 512 L 256.172 388.414 L 432.723 512 L 362.102 300.137 L 503.344 176.552 L 326.793 176.552 L 256.172 0 L 256.172 0 Z"/></svg>
